static/images/stories-accent-blue.svg

<svg width="299" height="272" viewBox="0 0 299 272" fill="none" xmlns="http://www.w3.org/2000/svg">
<path d="M110.76 124.237C104.932 122.622 104.932 122.622 96.3319 111.57C102.468 114.695 109.516 117.126 110.76 124.237Z" fill="#82C6DD"/>
<path d="M164.26 -20.2753C165.382 -21.1373 168.352 -20.989 169.744 -19.0194C170.844 -17.464 173.714 -17.1896 174.193 -15.0768C176.835 -12.7156 179.933 -10.6801 181.742 -7.72417C182.134 -7.63569 182.337 -7.42128 182.348 -7.0803C188.759 -1.93283 195.535 2.9253 200.752 9.01509C201.426 10.3944 204.047 10.8587 203.272 12.918C203.614 13.6118 206.059 12.687 204.992 14.4643C213.213 19.6168 218.498 26.9135 224.891 33.4009C228.627 35.4738 231.714 37.9757 232.785 41.8074C236.379 43.3939 238.882 45.6926 239.59 49.1582C240.572 49.3864 241.848 48.9443 242.498 49.9323C244.407 52.7527 248.503 54.153 249.539 57.5432C251.133 59.2504 254.999 59.7693 253.552 63.0662C254.419 64.0359 257.482 64.6826 255.835 65.9176C253.816 67.4312 253.363 64.7388 252.248 63.8491C249.223 62.8452 249.347 60.2916 248.44 58.2439C247.185 56.809 242.971 58.413 243.58 55.0617C238.53 53.0454 235.898 49.1833 233.037 45.4972C232.281 44.6861 231.524 43.8741 230.767 43.062C227.868 41.4358 226.153 38.9792 224.294 36.6227C219.185 36.8943 219.271 32.6865 216.987 30.604C211.04 25.1809 203.786 20.7254 199.255 14.244C195.32 14.1116 197.649 11.5673 197.127 10.12C195.449 10.2205 194.209 9.76982 193.736 8.34905C191.033 7.49014 188.909 6.22716 188.891 3.49577C187.853 1.4586 183.624 1.5771 184.072 -1.46571C181.781 -1.80407 180.818 -2.95618 181.11 -4.87999C180.204 -5.57707 179.298 -6.27323 178.392 -6.9694C175.048 -6.72747 175.342 -9.50803 173.801 -10.7632C173.199 -11.2482 172.596 -11.7324 171.994 -12.2174C169.013 -12.8516 167.985 -15.184 166.25 -16.8635C165.233 -17.8453 162.016 -18.5504 164.26 -20.2753Z" fill="#82C6DD"/>
<path d="M50.6853 173.767C55.2866 176.371 60.2977 178.708 60.9679 183.848C56.4912 181.165 52.2757 178.313 50.6853 173.767Z" fill="#82C6DD"/>
<path d="M37.4427 161.997C36.8113 161.437 35.5328 160.356 37.4554 159.395C38.9983 158.624 39.9813 159.204 40.7107 160.157C42.8379 162.94 44.8997 165.759 46.9856 168.564C48.448 169.669 50.0126 170.721 50.5293 172.584C46.7159 173.08 47.4343 170.293 45.9014 169.36C41.8065 167.895 40.2352 164.469 37.4427 161.997Z" fill="#82C6DD"/>
<path d="M176.926 -36.8019C177.363 -38.2558 176.252 -40.3517 178.397 -41.0295C181.013 -41.8551 180.714 -39.3368 181.689 -38.2734C182.822 -37.0397 183.967 -35.8145 185.109 -34.5853C186.843 -32.9908 188.577 -31.3962 190.309 -29.8009C190.482 -29.1229 190.655 -28.4449 190.828 -27.7669C195.977 -25.0638 198.247 -20.2072 202.629 -16.9302C206.547 -16.9575 203.728 -12.935 206.571 -12.3176C211.406 -9.24264 215.89 -5.95455 216.828 -0.502287C216.825 -0.501647 216.821 -0.50098 216.818 -0.50034C216.804 -0.493622 216.718 -0.431046 216.718 -0.431046C221.992 -0.558529 222.137 4.32357 225.789 5.78296C227.412 8.16202 232.504 8.43406 231.578 12.3249C228.406 11.9888 226.795 8.77243 222.947 9.64421C222.152 9.82488 221.057 9.23527 221.626 8.41661C222.05 7.80776 223.223 7.53285 224.063 7.10913C222.307 4.95955 217.365 5.88255 217.113 2.28414C215.167 2.45158 214.634 1.21111 213.921 0.149112C213.486 -2.02283 207.81 -1.47376 210.131 -5.07614C208.046 -5.37515 205.954 -5.66951 206.05 -8.0074C205.522 -8.54437 204.995 -9.08214 204.467 -9.61912C202.177 -10.7819 201.877 -14.1017 198.009 -13.555C198.099 -14.1974 198.19 -14.8398 198.281 -15.4829C197.046 -15.6795 195.343 -15.3479 195.501 -17.111C193.427 -19.7954 189.627 -21.5569 189.419 -25.2361C189.128 -25.5052 188.836 -25.7742 188.546 -26.044C187.236 -27.4213 185.926 -28.7977 184.616 -30.1749C182.467 -30.9507 181.8 -32.787 180.488 -34.161C178.308 -34.1255 176.039 -33.8465 176.926 -36.8019Z" fill="#82C6DD"/>
<path d="M161.949 51.7801C160.587 51.2074 159.933 50.2566 159.823 49.0134C158.707 47.908 156.186 47.4181 157.284 45.3372C157.706 44.537 158.804 44.8406 159.65 45.0031C162.368 45.5239 161.043 47.1543 160.871 48.4691C162.528 49.133 167.744 45.8092 165.359 51.0048C169.529 51.8756 167.805 56.5483 171.645 57.6332C173.691 59.0268 175.767 60.4094 174.267 63.4388C173.327 60.999 170.518 60.093 168.944 58.2269C167.026 55.775 162.949 54.8969 161.949 51.7801Z" fill="#82C6DD"/>
<path d="M71.072 195.046C71.12 194.247 72.2031 194.133 73.1836 194.214C77.9552 194.604 75.3955 198.278 76.9354 200.106C77.0575 200.252 77.1619 200.407 77.2747 200.557C79.9687 199.992 82.6567 203.271 82.3172 206.794C79.7566 205.27 76.9289 204.005 76.4632 201.095C73.6777 199.672 70.8841 198.203 71.072 195.046Z" fill="#82C6DD"/>
<path d="M64.2173 186.557C66.5066 186.385 68.1014 187.232 69.3471 188.592C68.3598 188.635 67.3746 188.677 66.3894 188.72C67.499 190.352 68.6074 191.985 69.717 193.617C66.5166 192.137 64.1858 190.158 62.3795 187.893C60.7285 185.821 62.4994 186.032 64.2173 186.557Z" fill="#82C6DD"/>
<path d="M27.4271 149.612C30.186 152.594 33.0973 155.445 36.2401 158.355C31.7781 156.682 28.8706 153.666 27.4271 149.612Z" fill="#82C6DD"/>
<path d="M178.132 65.2471C181.883 63.5255 182.65 68.3182 185.113 69.9996C186.735 71.052 187.838 72.2797 187.263 74.4307C184.711 74.1601 183.862 72.7674 182.921 71.4658C181.332 69.2019 176.271 66.1009 178.132 65.2471Z" fill="#82C6DD"/>
<path d="M90.4779 214.922C85.6036 213.748 85.0642 210.174 83.3114 207.472C86.3449 209.348 89.4945 211.158 90.4779 214.922Z" fill="#82C6DD"/>
<path d="M255.811 66.5417C260.662 67.7177 261.223 71.3744 264.29 72.8077C265.675 74.2094 267.821 75.3728 266.125 77.975C264.42 76.8683 262.807 75.8903 262.941 73.8541C259.843 72.2538 257.218 70.3501 255.811 66.5417Z" fill="#82C6DD"/>
<path d="M19.1626 95.3929L19.1573 95.3927L19.1532 95.3868L19.1592 95.3877L19.1626 95.3929Z" fill="#82C6DD"/>
<path d="M25.5785 101.962C20.805 101.473 20.9923 97.6974 19.0115 95.3582C24.4434 95.4107 24.1054 99.2864 25.5785 101.962Z" fill="#82C6DD"/>
<path d="M76.8751 89.1022C73.6189 87.977 71.2165 86.5757 69.6931 84.3464C69.0586 83.4189 69.3674 82.5769 70.5259 82.07C70.9432 81.8881 71.664 82.2003 72.2465 82.2871C71.093 85.7335 76.5931 85.8218 76.8751 89.1022Z" fill="#82C6DD"/>
<path d="M297.203 78.0982C294.251 75.5993 293.736 74.7388 293.52 72.7134C295.063 74.5522 297.13 75.8152 297.203 78.0982Z" fill="#82C6DD"/>
<path d="M237.15 18.3723C237.265 18.0824 239.443 17.8724 240.057 18.7863C240.713 19.7633 241.402 21.0023 240.366 22.0361C240.043 22.3588 238.331 21.838 237.046 21.6772C237.027 20.4421 236.762 19.3441 237.15 18.3723Z" fill="#82C6DD"/>
<path d="M11.7968 89.5947C16.5718 90.7599 17.7947 93.1752 19.237 95.426C15.4966 94.8715 14.6482 92.1788 11.7968 89.5947Z" fill="#82C6DD"/>
<path d="M194.954 77.3936C195.305 79.2742 194.47 80.3938 193.062 81.155C192.886 81.2497 190.986 80.0351 191.058 79.4445C191.25 77.8721 193.358 78.0211 194.954 77.3936Z" fill="#82C6DD"/>
<path d="M258.969 35.2476C258.702 38.6684 262.441 38.8668 261.37 41.8124C259.43 40.2307 257.033 39.4257 258.969 35.2476Z" fill="#82C6DD"/>
<path d="M153.726 41.2123C149.753 41.9834 148.956 40.0447 147.578 38.8111C148.273 38.2569 148.969 37.7044 149.664 37.1519C150.92 38.4067 152.175 39.6615 153.726 41.2123Z" fill="#82C6DD"/>
<path d="M137.975 26.4611C137.969 26.4467 137.962 26.4323 137.955 26.4188C137.956 26.4153 137.956 26.4136 137.954 26.41C138.015 26.4227 138.069 26.4394 138.13 26.4512C138.078 26.453 138.027 26.4575 137.975 26.4611Z" fill="#82C6DD"/>
<path d="M141.604 30.6579C145.761 29.6697 142.988 33.2902 144.766 33.8842C146.49 35.0017 148.214 36.1192 149.937 37.2358C149.264 37.7774 148.592 38.3199 147.917 38.8623C145.498 36.7151 141.985 35.3653 140.781 32.3283C139.261 30.9642 137.595 29.6901 136.263 28.2092C135.008 26.8122 136.331 26.5651 137.703 26.4947C138.499 28.2037 139.178 29.9865 141.604 30.6579Z" fill="#82C6DD"/>
<path d="M247.431 27.4823C248.381 26.6482 249.446 26.6319 250.379 27.4192C250.962 28.0872 250.975 28.8848 250.007 29.2757C248.946 29.7041 247.639 29.7145 246.965 28.8338C246.755 28.5597 247.062 27.806 247.431 27.4823Z" fill="#82C6DD"/>
<path d="M78.9296 -1.70063C78.9187 -2.07078 79.7793 -2.87734 79.9627 -2.83791C81.9646 -2.40148 82.7788 -1.19575 82.9959 0.68632C80.474 0.847761 78.9863 0.273129 78.9296 -1.70063Z" fill="#82C6DD"/>
<path d="M115.308 6.43739C119.644 5.58329 118.276 9.13359 119.845 10.4149C125.352 10.2894 123.829 15.7156 127.539 17.0074C130.191 17.2464 129.874 19.3962 130.935 20.6607C134.508 21.6592 137.992 22.7325 138.172 26.5375C134.036 25.5906 130.775 23.7053 128.607 20.6474C124.325 18.5477 122.092 14.9502 119.181 11.8483C117.486 10.3276 115.79 8.80692 114.095 7.28622C112.681 5.83519 111.267 4.38323 109.853 2.9322C112.524 3.38657 114.633 4.26012 115.308 6.43739Z" fill="#82C6DD"/>
<path d="M30.1328 42.9263C31.345 42.6963 32.3185 43.068 32.7057 43.9688C32.8651 44.3382 32.5641 44.8573 32.4686 45.3263C30.9227 45.4853 30.1888 44.9252 29.6912 44.1526C29.4161 43.7218 29.1334 43.1153 30.1328 42.9263Z" fill="#82C6DD"/>
<path d="M25.3957 101.967L25.3899 101.966L25.3861 101.957L25.3946 101.958L25.3957 101.967Z" fill="#82C6DD"/>
<path d="M29.2132 105.068C26.3219 105.058 25.5668 103.679 25.3039 101.936C27.8698 101.972 28.8797 103.164 29.2132 105.068Z" fill="#82C6DD"/>
<path d="M196.132 82.9515C198 82.6128 199.371 82.7381 199.879 84.2087C201.851 85.091 205.331 85.8179 203.464 88.061C202.173 89.6121 200.265 87.2803 198.771 86.4586C196.147 86.1437 197.768 83.8096 196.132 82.9515Z" fill="#82C6DD"/>
<path d="M208.815 92.8983C213.101 92.7985 213.304 96.2602 215.48 98.0022C217.558 100.027 220.872 101.525 219.764 105.912C217.506 103.595 215.858 101.904 214.21 100.214C212.336 98.296 210.462 96.3791 208.586 94.4621C207.171 92.9143 204.834 91.8744 204.46 89.5478C207.53 89.537 207.421 91.8315 208.815 92.8983Z" fill="#82C6DD"/>
<path d="M7.24795 22.8393C8.17779 22.2133 9.01463 22.5099 9.56034 23.1576C10.0199 23.7034 10.6477 24.3127 9.69423 25.0349C8.70848 25.4694 7.87474 25.2996 7.2157 24.7295C6.55288 24.1556 6.32437 23.4612 7.24795 22.8393Z" fill="#82C6DD"/>
<path d="M67.8789 144.695C67.8905 144.707 67.8995 144.722 67.9109 144.735C67.8917 144.736 67.8794 144.733 67.8603 144.734L67.8789 144.695Z" fill="#82C6DD"/>
<path d="M71.8335 148.242C68.3966 148.401 68.9394 145.963 67.8198 144.698C70.89 144.572 71.5079 146.198 71.8335 148.242Z" fill="#82C6DD"/>
<path d="M10.1986 131.507C14.9441 131.418 12.4886 134.748 13.3353 136.554C12.4008 135.623 11.4663 134.692 10.5318 133.761C9.00748 133.995 7.94592 133.525 7.98128 132.313C8.01734 131.047 9.12134 131.115 10.1986 131.507Z" fill="#82C6DD"/>
<path d="M89.4486 101.835C89.9982 102.287 90.6644 102.981 89.58 103.583C89.1749 103.807 88.4185 103.605 87.9841 103.6C87.3221 102.843 86.9354 102.165 87.8671 101.606C88.1782 101.419 89.1303 101.574 89.4486 101.835Z" fill="#82C6DD"/>
<path d="M276.926 56.6847C277.535 55.9328 278.778 55.9526 279.277 56.4668C279.742 56.9473 279.546 57.8436 279.642 58.5572C278.844 58.501 278.044 58.4447 277.111 58.3791C275.766 58.074 276.502 57.2058 276.926 56.6847Z" fill="#82C6DD"/>
<path d="M67.8808 144.697L67.8629 144.736C67.8346 144.723 67.8136 144.706 67.7878 144.69C67.8216 144.691 67.847 144.696 67.8808 144.697Z" fill="#82C6DD"/>
<path d="M64.8438 141.377C67.3192 141.925 66.4955 143.946 67.8625 144.725C65.2452 144.665 64.5628 143.493 64.8438 141.377Z" fill="#82C6DD"/>
<path d="M127.846 143.124C128.511 142.562 129.528 142.276 129.982 143.165C130.152 143.498 129.602 144.098 129.303 144.746C128.586 144.655 127.713 144.735 127.517 144.47C127.295 144.171 127.49 143.425 127.846 143.124Z" fill="#82C6DD"/>
<path d="M17.7794 31.7954C18.7185 31.2116 19.4791 31.6899 19.8434 32.3458C20.0489 32.7144 19.8516 33.2418 19.8398 33.5914C18.5407 34.1473 17.7887 33.8096 17.4563 33.1295C17.2807 32.7677 17.4329 32.012 17.7794 31.7954Z" fill="#82C6DD"/>
<path d="M274.888 53.5796C273.867 54.1453 273.488 53.3153 272.788 52.7726C272.774 52.4704 272.753 52.0431 272.734 51.615C273.49 51.8221 274.362 51.9175 274.955 52.2858C275.227 52.4564 275.169 53.4246 274.888 53.5796Z" fill="#82C6DD"/>
<path d="M66.0588 80.3041C65.9325 79.8013 65.8194 79.3546 65.7064 78.908C66.5073 78.935 67.4897 78.7562 68.0508 79.0521C68.5183 79.2983 68.4914 80.1028 68.6818 80.661C67.8572 80.549 67.0339 80.4362 66.0588 80.3041Z" fill="#82C6DD"/>
<path d="M19.5803 141.118C20.7614 140.564 21.8306 140.808 22.3611 141.7C22.5955 142.095 22.2984 142.715 22.2426 143.232C21.2359 142.997 20.228 142.762 19.4963 142.592C18.6311 141.918 18.9595 141.409 19.5803 141.118Z" fill="#82C6DD"/>
<path d="M263.539 42.1052C264.424 42.6075 265.132 42.7955 265.322 43.173C265.521 43.5696 265.429 44.2591 265.097 44.6195C264.635 45.1215 263.751 45.048 263.552 44.4786C263.334 43.865 263.521 43.1407 263.539 42.1052Z" fill="#82C6DD"/>
<path d="M92.2381 11.4562C89.1286 11.1684 88.5377 9.2245 88.1575 7.14171C88.0218 6.84631 87.9302 6.53934 87.8837 6.22168C85.8271 4.78092 83.4435 3.46967 84.2518 0.712269C84.3522 0.372783 85.4276 -0.174354 85.7004 -0.0664007C88.5073 1.04148 89.4647 3.01067 88.9791 5.56139C90.209 6.1264 92.2652 6.17299 91.2842 8.1265C92.5725 8.52531 94.9489 7.75815 94.4467 10.0753C94.6292 10.3815 94.8117 10.6877 94.9942 10.9939C97.1782 14.192 102.17 15.0089 104.193 18.3425C104.937 19.1999 105.679 20.0571 106.423 20.9145C107.061 21.4024 107.699 21.8895 108.337 22.3774C111.257 24.2116 113.158 26.5891 113.778 29.6495C115.644 31.5152 119.182 32.2154 119.819 35.6966C115.273 34.9642 114.621 30.9555 111.031 30.1133C111.394 27.5835 107.262 28.1831 106.986 26.0969C104.217 25.2446 101.819 24.123 101.849 21.235C101.41 20.645 100.971 20.0541 100.533 19.4633C98.6011 17.6155 96.6702 15.7668 94.7401 13.9191C93.9046 13.0992 93.0713 12.2777 92.2381 11.4562Z" fill="#82C6DD"/>
</svg>

<svg xmlns="http://www.w3.org/2000/svg" width="299" height="272" fill="none" viewBox="0 0 299 272"><path fill="#82c6dd" d="M110.76 124.237c-5.828-1.615-5.828-1.615-14.428-12.667 6.136 3.125 13.184 5.556 14.428 12.667M164.26-20.275c1.122-.862 4.092-.714 5.484 1.256 1.1 1.555 3.97 1.83 4.449 3.942 2.642 2.361 5.74 4.397 7.549 7.353q.589.132.606.644c6.411 5.147 13.187 10.005 18.404 16.095.674 1.38 3.295 1.844 2.52 3.903.342.694 2.787-.231 1.72 1.546 8.221 5.153 13.506 12.45 19.899 18.937 3.736 2.073 6.823 4.575 7.894 8.406 3.594 1.587 6.097 3.886 6.805 7.351.982.228 2.258-.214 2.908.774 1.909 2.82 6.005 4.221 7.041 7.611 1.594 1.707 5.46 2.226 4.013 5.523.867.97 3.93 1.617 2.283 2.852-2.019 1.513-2.472-1.18-3.587-2.069-3.025-1.004-2.901-3.557-3.808-5.605-1.255-1.435-5.469.169-4.86-3.182-5.05-2.017-7.682-5.879-10.543-9.565l-2.27-2.435c-2.899-1.626-4.614-4.083-6.473-6.44-5.109.272-5.023-3.935-7.307-6.018-5.947-5.423-13.201-9.879-17.732-16.36-3.935-.132-1.606-2.677-2.128-4.124-1.678.1-2.918-.35-3.391-1.77-2.703-.86-4.827-2.123-4.845-4.854-1.038-2.037-5.267-1.919-4.819-4.962-2.291-.338-3.254-1.49-2.962-3.414l-2.718-2.09c-3.344.243-3.05-2.538-4.591-3.793l-1.807-1.454c-2.981-.635-4.009-2.967-5.744-4.646-1.017-.982-4.234-1.687-1.99-3.412M50.685 173.767c4.602 2.604 9.613 4.941 10.283 10.081-4.477-2.683-8.692-5.535-10.283-10.081M37.443 161.997c-.632-.56-1.91-1.641.012-2.602 1.543-.771 2.526-.191 3.256.762 2.127 2.783 4.189 5.602 6.275 8.407 1.462 1.105 3.027 2.157 3.543 4.02-3.813.496-3.095-2.291-4.628-3.224-4.095-1.465-5.666-4.891-8.458-7.363M176.926-36.802c.437-1.454-.674-3.55 1.471-4.227 2.616-.826 2.317 1.692 3.292 2.756 1.133 1.233 2.278 2.459 3.42 3.688l5.2 4.784.519 2.034c5.149 2.703 7.419 7.56 11.801 10.837 3.918-.027 1.099 3.995 3.942 4.612 4.835 3.075 9.319 6.363 10.257 11.816l-.01.002c-.014.006-.1.069-.1.069 5.274-.128 5.419 4.755 9.071 6.214 1.623 2.379 6.715 2.651 5.789 6.542-3.172-.336-4.783-3.553-8.631-2.68-.795.18-1.89-.41-1.321-1.228.424-.61 1.597-.884 2.437-1.308-1.756-2.15-6.698-1.226-6.95-4.825-1.946.168-2.479-1.073-3.192-2.135-.435-2.172-6.111-1.623-3.79-5.225-2.085-.3-4.177-.594-4.081-2.931l-1.583-1.612c-2.29-1.163-2.59-4.483-6.458-3.936l.272-1.928c-1.235-.197-2.938.135-2.78-1.628-2.074-2.684-5.874-4.446-6.082-8.125q-.437-.404-.873-.808l-3.93-4.13c-2.149-.777-2.816-2.613-4.128-3.987-2.18.035-4.449.315-3.562-2.64M161.949 51.78c-1.362-.573-2.016-1.523-2.126-2.767-1.116-1.105-3.637-1.595-2.539-3.676.422-.8 1.52-.496 2.366-.334 2.718.52 1.393 2.151 1.221 3.466 1.657.664 6.873-2.66 4.488 2.536 4.17.87 2.446 5.543 6.286 6.628 2.046 1.394 4.122 2.776 2.622 5.806-.94-2.44-3.749-3.346-5.323-5.212-1.918-2.452-5.995-3.33-6.995-6.447M71.072 195.046c.048-.799 1.131-.913 2.112-.832 4.771.39 2.212 4.064 3.751 5.892.123.146.227.301.34.451 2.694-.565 5.382 2.714 5.042 6.237-2.56-1.524-5.388-2.789-5.854-5.699-2.785-1.423-5.579-2.892-5.391-6.049M64.217 186.557c2.29-.172 3.884.675 5.13 2.035l-2.958.128 3.328 4.897c-3.2-1.48-5.531-3.459-7.337-5.724-1.652-2.072.12-1.861 1.837-1.336M27.427 149.612c2.759 2.982 5.67 5.833 8.813 8.743-4.462-1.673-7.37-4.689-8.813-8.743M178.132 65.247c3.751-1.721 4.518 3.071 6.981 4.753 1.622 1.052 2.725 2.28 2.15 4.43-2.552-.27-3.401-1.663-4.342-2.964-1.589-2.264-6.65-5.365-4.789-6.219M90.478 214.922c-4.874-1.174-5.414-4.748-7.167-7.45 3.034 1.876 6.183 3.686 7.167 7.45M255.811 66.542c4.851 1.176 5.412 4.832 8.479 6.266 1.385 1.401 3.531 2.565 1.835 5.167-1.705-1.107-3.318-2.085-3.184-4.12-3.098-1.601-5.723-3.505-7.13-7.313M19.163 95.393h-.006l-.004-.006h.006z"/><path fill="#82c6dd" d="M25.579 101.962c-4.774-.489-4.587-4.265-6.567-6.604 5.431.053 5.093 3.928 6.566 6.604M76.875 89.102c-3.256-1.125-5.659-2.526-7.182-4.756-.634-.927-.326-1.77.833-2.276.417-.182 1.138.13 1.72.217-1.153 3.447 4.347 3.535 4.63 6.815M297.203 78.098c-2.952-2.499-3.467-3.36-3.683-5.385 1.543 1.84 3.61 3.102 3.683 5.385M237.15 18.372c.115-.29 2.293-.5 2.907.414.656.977 1.345 2.216.309 3.25-.323.323-2.035-.198-3.32-.359-.019-1.235-.284-2.333.104-3.305"/><path fill="#82c6dd" d="M11.797 89.595c4.775 1.165 5.998 3.58 7.44 5.831-3.74-.555-4.589-3.247-7.44-5.831M194.954 77.394c.351 1.88-.484 3-1.892 3.761-.176.095-2.076-1.12-2.004-1.71.192-1.573 2.3-1.424 3.896-2.051M258.969 35.248c-.267 3.42 3.472 3.619 2.401 6.564-1.94-1.581-4.337-2.386-2.401-6.564M153.726 41.212c-3.973.771-4.77-1.167-6.148-2.4q1.043-.832 2.086-1.66zM137.975 26.461l-.02-.042q.002-.005-.001-.009c.061.013.115.03.176.041q-.077.003-.155.01"/><path fill="#82c6dd" d="M141.604 30.658c4.157-.988 1.384 2.632 3.162 3.226l5.171 3.352q-1.008.812-2.02 1.626c-2.419-2.147-5.932-3.497-7.136-6.534-1.52-1.364-3.186-2.638-4.518-4.119-1.255-1.397.068-1.644 1.44-1.714.796 1.709 1.475 3.491 3.901 4.163M247.431 27.482c.95-.834 2.015-.85 2.948-.063.583.668.596 1.466-.372 1.857-1.061.428-2.368.439-3.042-.442-.21-.274.097-1.028.466-1.352M78.93-1.7c-.011-.37.85-1.177 1.033-1.138 2.002.437 2.816 1.642 3.033 3.524-2.522.162-4.01-.413-4.066-2.387M115.308 6.437c4.336-.854 2.968 2.697 4.537 3.978 5.507-.126 3.984 5.3 7.694 6.592 2.652.24 2.335 2.39 3.396 3.654 3.573.998 7.057 2.072 7.237 5.877-4.136-.947-7.397-2.833-9.565-5.89-4.282-2.1-6.515-5.698-9.426-8.8l-5.086-4.562-4.242-4.354c2.671.455 4.78 1.328 5.455 3.505M30.133 42.926c1.212-.23 2.186.142 2.573 1.043.16.37-.142.888-.237 1.357-1.546.16-2.28-.4-2.778-1.173-.275-.431-.558-1.038.442-1.227M25.396 101.967l-.006-.001-.004-.009.009.001z"/><path fill="#82c6dd" d="M29.213 105.068c-2.891-.01-3.646-1.389-3.91-3.132 2.567.036 3.577 1.228 3.91 3.132M196.132 82.952c1.868-.34 3.239-.214 3.747 1.257 1.972.882 5.452 1.609 3.585 3.852-1.291 1.551-3.199-.78-4.693-1.602-2.624-.315-1.003-2.65-2.639-3.508M208.815 92.898c4.286-.1 4.489 3.362 6.665 5.104 2.078 2.025 5.392 3.523 4.284 7.91l-5.554-5.698q-2.81-2.877-5.624-5.752c-1.415-1.548-3.752-2.588-4.126-4.914 3.07-.011 2.961 2.284 4.355 3.35M7.248 22.84c.93-.627 1.767-.33 2.312.318.46.545 1.088 1.155.134 1.877-.986.434-1.82.265-2.478-.305-.663-.574-.892-1.269.032-1.89M67.879 144.695q.015.02.032.04c-.02.001-.032-.002-.05-.001z"/><path fill="#82c6dd" d="M71.834 148.242c-3.437.159-2.895-2.279-4.014-3.544 3.07-.126 3.688 1.5 4.014 3.544M10.199 131.507c4.745-.089 2.29 3.241 3.136 5.047l-2.803-2.793c-1.525.234-2.586-.236-2.55-1.448.035-1.266 1.14-1.198 2.217-.806M89.449 101.835c.55.452 1.215 1.146.131 1.748-.405.224-1.162.022-1.596.017-.662-.757-1.049-1.435-.117-1.994.311-.187 1.263-.032 1.582.229M276.926 56.685c.609-.752 1.852-.732 2.351-.218.465.48.269 1.377.365 2.09l-2.531-.178c-1.345-.305-.609-1.173-.185-1.694"/><path fill="#82c6dd" d="m67.88 144.697-.017.039c-.028-.013-.05-.03-.075-.046.034.001.059.006.093.007"/><path fill="#82c6dd" d="M64.844 141.377c2.475.548 1.652 2.569 3.019 3.348-2.618-.06-3.3-1.232-3.02-3.348M127.846 143.124c.665-.562 1.682-.848 2.136.041.17.333-.38.933-.679 1.581-.717-.091-1.59-.011-1.786-.276-.222-.299-.027-1.045.329-1.346M17.78 31.795c.938-.583 1.7-.105 2.063.55.206.37.009.897-.003 1.246-1.3.556-2.051.219-2.384-.462-.175-.361-.023-1.117.323-1.334M274.888 53.58c-1.021.565-1.4-.265-2.1-.807l-.054-1.158c.756.207 1.628.302 2.221.67.272.171.214 1.14-.067 1.295M66.059 80.304c-.126-.503-.24-.95-.353-1.396.801.027 1.784-.152 2.345.144.467.246.44 1.05.63 1.609zM19.58 141.118c1.181-.554 2.25-.31 2.781.582.235.395-.063 1.015-.118 1.532l-2.747-.64c-.865-.674-.537-1.183.084-1.474M263.539 42.105c.885.503 1.593.69 1.783 1.068.199.397.107 1.086-.225 1.447-.462.502-1.346.428-1.545-.141-.218-.614-.031-1.338-.013-2.374M92.238 11.456c-3.11-.288-3.7-2.231-4.08-4.314a3.4 3.4 0 0 1-.274-.92c-2.057-1.441-4.44-2.752-3.632-5.51.1-.34 1.176-.886 1.448-.778 2.807 1.107 3.765 3.077 3.28 5.627 1.229.565 3.285.612 2.304 2.566 1.288.398 3.665-.369 3.163 1.948l.547.919c2.184 3.198 7.176 4.015 9.199 7.349l2.23 2.572 1.914 1.462c2.92 1.835 4.821 4.212 5.441 7.273 1.866 1.865 5.404 2.565 6.041 6.047-4.546-.733-5.198-4.742-8.788-5.584.363-2.53-3.769-1.93-4.045-4.016-2.769-.852-5.167-1.974-5.137-4.862q-.659-.884-1.316-1.772L94.74 13.92q-1.252-1.23-2.502-2.463"/></svg>
